X:1
T:Minuet in G
T:Minuet in G
T:K. 15c
T:W. A. Mozart
C:W. A. Mozart
%%score { 1 | 2 }
L:1/8
Q:1/4=106
M:3/4
K:G
V:1 treble nm="Piano" snm="Pno."
V:2 bass 
V:1
"^Minuet" GBdgfg | egdgcg | Bbagfg | d2 Tc2 B2 | Gbagfe | Fagfed | (3efg B2 ^c2 | d6 :: DdcBAG | %9
 FGABce | (3ded c2 Bc |{B} A6 | GBdgfg | egdgcg | Bbagfg | d2 Tc2 B2 | Cgfedc | dgfgd^d | %18
 (3e=dc B2 TA2 | G6 :| %20
V:2
 G,2 z2 z2 | G,2 F,2 E,2 | D,2 C,2 B,,2 | A,,2 F,2 G,2 | G,2 z2 z2 | F,2 z2 z2 | G,2 A,2 A,,2 | %7
 D,2 A,,2 D,,2 :: D,2 z2 z2 | D,E,F,G,A,C | (3B,CB, A,2 G,A, |{G,} [D,F,]6 | G,2 z2 z2 | %13
 G,2 F,2 E,2 | D,2 C,2 B,,2 | A,,2 F,2 G,2 | C,2 z2 z2 | B,,2 z2 z2 | C,2 D,2 D,,2 | %19
 [G,,G,]2 D,2 G,,2 :| %20

